X: 35055
T: Rolling In The Barrel
R: reel
M: 4/4
K: Dmajor
D|"Em"E2~E2 BEE2|B2AF "D"DFAF|"Em"E2~E2 BEE2|"D"B2Ad BEED|
"Em"E2~E2 BEE2|BdAF "D"DFAF|E2~E2 BEE2|BdAd "Em"BEEd||
e2fe befe|"D"d2df a2af|"Em"e2fe befe|"D"dBAF "Em"FEEd|
e2fe befe|"D"d2df a2af|"Em"e{f}gfe "D"fdec|dBAF "Em"FEED||

